X: 1
T: In Praise of Maureen MacKenzie
T: Moldadh Maureen Nic Coinnich
R: march
S: https://thesession.org/tunes/12578
M: 4/4
L: 1/8
K: A
|: AB |\
c2 ce f2 a>f | e>ce<f A2  A<B | cB  c<e f2  e<c | B4 B2 AB |
c2 ce f2 a>f | e>ce<f A>A A>B | c<e e>c B>A B<c | A4 A2 :|
|: a>g |\
f2 f2 f2 af | e>^d e<f A>A A>B | c>B c<e f2 e<c |
[1 B4 B2 ag | f2 f2 f2 af | e>^d e<f A>A A>B | c<e e>c B>A B<c | A4 A2 :|
[2 B4 B2 AB | c>B c<e f>e f<a | e>c e<f A>A A>B | c>B c<e B2- B>A | A4 A2 |]
